src/features/landing/header/logo.svg

<svg width="368" height="64" xmlns="http://www.w3.org/2000/svg">
  <path d="m55.909,2l-14.971001,7.75l-13.875,-6l-18.972,1.25l-6.091,53.25l19.615,-1.667l21.771002,5.417l18.613998,-6.75l-6.091,-53.25zm-1.657001,3.109l5.582001,48.799001l-16.063999,5.825001l-0.089001,-1.874001l14.171001,-5.350002l-4.842003,-44.592999l-11.445,5.428l-0.077999,-1.625999l0.371002,-0.191l12.393997,-6.418zm-11.636997,30.340001c0.222,-0.472 0.439999,-1.135002 0.543999,-2.065002c0,0 1.102001,0.054001 2.458,3.009003c0,0 0.591999,-0.059002 0.297001,-1.988003c0,0 2.116997,-0.853001 0.974998,-4.603998c0,0 1.776001,2.446001 1.186001,-0.734001c0,0 1.947998,-2.387999 -0.379002,-3.976c0,0 0.080002,-1.761 1.479,-1.535c0,0 1.398003,-3.636 0.723999,0.681c0,0 0.040001,0.854 0.929001,1.817001c0,0 0.382999,-1.419001 -0.295998,-2.949001c0,0 1.398998,-2.618 1.271,-4.886999c0,0 -4.532001,1.681 -9.575001,1.178999c0,0 0.245998,-0.938 -0.443001,-1.465l-0.140999,-2.964999l0.119999,-0.057l9.984001,-4.734l4.487999,41.340999l-12.629002,4.769001l-0.991997,-20.836998zm-1.838001,-17.594002c-0.521,0.743 -1.966999,3.028 -1.088001,4.396c0,0 -0.425999,2.963001 -1.02,-1.358999c0,0 -0.970997,2.551001 -2.285,1.982c0,0 -0.361,2.581999 -1.188,0.851999c0,0 0.677002,0.285 0.826,-0.51c0,0 -1.909,-2.045 -3.049999,1.047001c0,0 -0.931999,0.371 -0.570999,1.820999c0,0 0.653999,-1.195999 0.993999,0.625c0,0 0.361,-0.284 0.512001,-2.615c0,0 0.905998,-0.452 0.205997,1.389999c0,0 2.076,0.033001 -1.140999,1.874001c0,0 -0.178001,-0.030001 -0.318001,-0.736c0,0 -0.487,1.700001 -1.484999,2.302999c0,0 0.233999,0.679001 -0.506001,0.991001c0,0 -0.401001,1.052 0.552999,1.052c0,0 0.825001,-2.528 2.393002,-0.539c0,0 0.299,-0.113001 -0.167999,-1.108002c0,0 0.823997,0.316 1.142998,1.619001c0,0 0.508999,-0.088001 0.59,-1.221001c0,0 0.639,-1.448 1.678001,0.257c0,0 -1.379002,-0.399 -1.737,0.992001c0,0 0.651997,-0.285 1.057999,0.114c0,0 0.041,0.649 -0.375,0.9c0.18,0.337999 0.375,0.662001 0.646999,0.935999c0.075802,0.070602 0.124901,0.165199 0.138901,0.267799c0.014,0.1026 -0.007801,0.206902 -0.061901,0.2952c0.734001,1.256001 2.09,2.928001 3.039001,0.259003c0,0 -1.27,0.720997 -1.695,-1.268002c0,0 2.563,0.326 3.744999,2.896999l0.994999,20.948002l-19.931999,-5.59l0.299,-2.957001c0.414,1.061001 0.899,1.492001 0.899,1.492001c-0.563,-4.615002 2.767,-7.572002 2.767,-7.572002c0.646999,-3.167999 -0.997999,-4.59 -2.523001,-5.23l0.783001,-7.747999c0.313999,-0.391001 0.499001,-0.652 0.499001,-0.652c-0.113001,-0.389 -0.223001,-0.73 -0.328001,-1.042l0.759001,-7.518c0.637999,0.777 0.711,1.483 0.532,2.125c-0.820999,2.952999 0.235001,3.858 0.235001,3.858c0.640999,-2.493999 2.841,-2.892 2.841,-2.892c-0.125999,-2.331999 1.228001,-4.983 1.228001,-4.983c-1.473001,-2.531 -3.580002,-0.823999 -4.684,0.384001l0.085999,-0.849001c0.226,-0.291 0.462,-0.608 0.717001,-0.969999c0,0 -0.211,-0.145 -0.594,-0.251l0.671999,-6.655l13.684002,5.672l0.095997,0.04l0.135002,2.875999zm-15.582001,-2.035c-0.681999,0.032001 -1.555,0.267 -2.581999,0.977001c0,0 -0.488001,4.481998 2.313999,1.672998l-0.313,3.101c-0.366001,-1.223999 -1.234001,-1.65 -1.234001,-1.65c-0.849998,0.514 -0.764999,1.194 -0.764999,1.194c0.771,0.116001 1.242001,1.044001 1.519001,1.914c-0.156,0.239 -0.423,0.512001 -0.884001,0.557001c0,0 0.537001,0.806999 1.056999,1.032999l-0.056999,0.556c-1.209999,-1.813 -1.733999,1.83 -1.733999,1.83c-2.991001,-3.332998 0.793999,-5.000999 0.793999,-5.000999c-2.316999,-0.979 -3.389999,-3.785 -3.389999,-3.785c-0.113001,1.743 -0.792,1.666 -0.792,1.666c-5.31,-3.104 -6.266,1.895 -6.266,1.895c0.842999,2.647999 -0.964001,2.951 -0.964001,2.951c1.75,0.302 2.653,-2.121 2.653,-2.121c3.618001,1.817999 1.697,8.330999 1.697,8.330999c1.411001,0.83 1.807001,3.559 1.807001,3.559c0.983,0.298 1.99,0.900002 2.695999,1.376999c0.137001,-0.122997 0.278,-0.239998 0.426001,-0.348999c-1.65,-1.166 -1.653,-3.054001 -1.653,-3.054001c1.497,0 3.089001,-1.289999 4.237999,-2.476l-0.619999,6.143c-0.2791,-0.070099 -0.5618,-0.124599 -0.847,-0.162998c-0.2666,0.127899 -0.517,0.286999 -0.746,0.473999l0.122,0.095001c-1.664,3.196999 0.586,4.479 0.959,4.663998l-0.955,9.450001l-13.235999,1.035l4.415,-41.813999l13.018,-0.766l-0.677,6.704zm-2.674,36.423l20.159,5.653999l0.09,1.889l-20.496,-5.099998l0.247,-2.443001zm17.965,-40.509l0.076,1.59l-13.542,-5.613l0.174,-1.726l12.950001,5.601l0.341999,0.148zm-30.597,-4.848l16.316999,-1.075l-0.181,1.794l-14.528999,0.854l-4.737,44.874001l14.765,-1.157001l-0.246,2.428001l-17.013,1.446999l5.624,-49.164999z" fill="white" id="path64"/>
  <path d="m32.062,36.6171c0,0 2.121998,0.396999 1.272999,4.486c0,0 0.339001,3.187 2.200001,2.896c0,0 0.507999,-4.599098 2.881001,-8.122101c0,0 -0.962002,0.958099 -2.053001,-2.218899c-0.164997,0.119999 -0.389,0.1479 -0.576,-0.038101c-0.469997,-0.468998 -0.753998,-1.059998 -1.059998,-1.653999c-0.0434,-0.0854 -0.0611,-0.181599 -0.051003,-0.277c-1.543999,-0.575998 -4.671,-1.153898 -5.113998,3.393101c0.000999,0 0.591999,3.130001 2.5,1.535z" fill="white" id="path66"/>
  <path d="m31.09,25.9951c0.146,2.048 0.42,2.67 0.778999,1.819c0.361,-0.844 -0.778999,-1.819 -0.778999,-1.819z" fill="white" id="path68"/>
  <path d="m30.448999,27.9279c0,0 0.597,-0.088001 0.426001,-0.839001c0,0 -0.426001,0.044001 -0.426001,0.839001z" fill="white" id="path70"/>
  <path d="m30.219,23.811001c0,0 -1.504999,0 -0.973,0.768999c0.528999,0.767 0.973,-0.768999 0.973,-0.768999z" fill="white" id="path72"/>
  <path d="m37.740002,42.467999c0,0 0.459999,-0.938 0.445,-2.383999c0.000999,0 -1.463001,1.672001 -0.445,2.383999z" fill="white" id="path74"/>
  <path d="m47.226002,36.589802c0,0 -1.060001,0.966999 -0.866001,1.848c0.190998,0.883999 1.120998,-0.174 0.866001,-1.848z" fill="white" id="path76"/>
  <path d="m51.465,39.716999c0.465,-0.813999 -2.547001,-1.821999 -2.547001,-1.821999c0.595001,0.882 2.125,2.548 2.547001,1.821999z" fill="white" id="path78"/>
  <path d="m48.096001,39.890999c0.707001,-1.209999 -2.139999,-0.631001 -2.139999,-0.631001c0,0 1.864998,1.109001 2.139999,0.631001z" fill="white" id="path80"/>
  <path d="m49.215,40.143101c0,0 -0.57,1.274998 -2.688,1.812c0,0 0.446999,1.024998 0,2.958c0,0 2.138,-2.728001 3.369999,1.217999c0,0 1.056999,0.574001 1.798,-2.999001c0,0 -0.889,-1.286999 -1.185001,-3.117001c0.001003,-0.000999 -0.292999,2.344002 -1.294998,0.128002z" fill="white" id="path82"/>
  <path d="m49.632999,28.509899c0.135002,-0.112999 0.240002,-0.153999 0.240002,-0.153999c-1.037003,-1.677 -0.658001,0.74 -0.658001,0.74c0.067001,-0.159 0.146,-0.281 0.227001,-0.383999c0.055,0.716 -0.117001,1.782999 -1.235001,2.796999c-0.000999,0 2.396999,-0.903999 1.425999,-2.999001z" fill="white" id="path84"/>
  <path d="m31.332001,15.955c0.522999,-1.226 -1.121,-2.622 -1.121,-2.622c0.211,2.947001 0.601999,3.847 1.121,2.622z" fill="white" id="path86"/>
  <path d="m29.288,16.1161c0,0 0.851,-0.126 0.610001,-1.204c0,0 -0.610001,0.061 -0.610001,1.204z" fill="white" id="path88"/>
  <text font-weight="bold" font-size="36px" font-family="Roboto" fill="#ffffff" xml:space="preserve" x="69.999924" y="40.975868" id="text102">
   <tspan x="69.999924" y="40.975868" id="tspan104">Planet Data</tspan>
  </text>
</svg>

<svg width="368" height="64" viewBox="0 0 368 64" fill="none" xmlns="http://www.w3.org/2000/svg">
<path d="M55.909 2L40.938 9.75L27.063 3.75L8.091 5L2 58.25L21.615 56.583L43.386 62L62 55.25L55.909 2ZM54.252 5.109L59.834 53.908L43.77 59.733L43.681 57.859L57.852 52.509L53.01 7.916L41.565 13.344L41.487 11.718L41.858 11.527L54.252 5.109ZM42.615 35.449C42.837 34.977 43.055 34.314 43.159 33.384C43.159 33.384 44.261 33.438 45.617 36.393C45.617 36.393 46.209 36.334 45.914 34.405C45.914 34.405 48.031 33.552 46.889 29.801C46.889 29.801 48.665 32.247 48.075 29.067C48.075 29.067 50.023 26.679 47.696 25.091C47.696 25.091 47.776 23.33 49.175 23.556C49.175 23.556 50.573 19.92 49.899 24.237C49.899 24.237 49.939 25.091 50.828 26.054C50.828 26.054 51.211 24.635 50.532 23.105C50.532 23.105 51.931 20.487 51.803 18.218C51.803 18.218 47.271 19.899 42.228 19.397C42.228 19.397 42.474 18.459 41.785 17.932L41.644 14.967L41.764 14.91L51.748 10.176L56.236 51.517L43.607 56.286L42.615 35.449ZM40.777 17.855C40.256 18.598 38.81 20.883 39.689 22.251C39.689 22.251 39.263 25.214 38.669 20.892C38.669 20.892 37.698 23.443 36.384 22.874C36.384 22.874 36.023 25.456 35.196 23.726C35.196 23.726 35.873 24.011 36.022 23.216C36.022 23.216 34.113 21.171 32.972 24.263C32.972 24.263 32.04 24.634 32.401 26.084C32.401 26.084 33.055 24.888 33.395 26.709C33.395 26.709 33.756 26.425 33.907 24.094C33.907 24.094 34.813 23.642 34.113 25.484C34.113 25.484 36.189 25.517 32.972 27.358C32.972 27.358 32.794 27.328 32.654 26.622C32.654 26.622 32.167 28.322 31.169 28.925C31.169 28.925 31.403 29.604 30.663 29.916C30.663 29.916 30.262 30.968 31.216 30.968C31.216 30.968 32.041 28.44 33.609 30.429C33.609 30.429 33.908 30.316 33.441 29.321C33.441 29.321 34.265 29.637 34.584 30.94C34.584 30.94 35.093 30.852 35.174 29.719C35.174 29.719 35.813 28.271 36.852 29.976C36.852 29.976 35.473 29.577 35.115 30.968C35.115 30.968 35.767 30.683 36.173 31.082C36.173 31.082 36.214 31.731 35.798 31.982C35.978 32.32 36.173 32.644 36.445 32.918C36.5208 32.9886 36.5699 33.0832 36.5839 33.1858C36.5979 33.2884 36.5761 33.3927 36.522 33.481C37.256 34.737 38.612 36.409 39.561 33.74C39.561 33.74 38.291 34.461 37.866 32.472C37.866 32.472 40.429 32.798 41.611 35.369L42.606 56.317L22.674 50.727L22.973 47.77C23.387 48.831 23.872 49.262 23.872 49.262C23.309 44.647 26.639 41.69 26.639 41.69C27.286 38.522 25.641 37.1 24.116 36.46L24.899 28.712C25.213 28.321 25.398 28.06 25.398 28.06C25.285 27.671 25.175 27.33 25.07 27.018L25.829 19.5C26.467 20.277 26.54 20.983 26.361 21.625C25.54 24.578 26.596 25.483 26.596 25.483C27.237 22.989 29.437 22.591 29.437 22.591C29.311 20.259 30.665 17.608 30.665 17.608C29.192 15.077 27.085 16.784 25.981 17.992L26.067 17.143C26.293 16.852 26.529 16.535 26.784 16.173C26.784 16.173 26.573 16.028 26.19 15.922L26.862 9.267L40.546 14.939L40.642 14.979L40.777 17.855ZM25.195 15.82C24.513 15.852 23.64 16.087 22.613 16.797C22.613 16.797 22.125 21.279 24.927 18.47L24.614 21.571C24.248 20.347 23.38 19.921 23.38 19.921C22.53 20.435 22.615 21.115 22.615 21.115C23.386 21.231 23.857 22.159 24.134 23.029C23.978 23.268 23.711 23.541 23.25 23.586C23.25 23.586 23.787 24.393 24.307 24.619L24.25 25.175C23.04 23.362 22.516 27.005 22.516 27.005C19.525 23.672 23.31 22.004 23.31 22.004C20.993 21.025 19.92 18.219 19.92 18.219C19.807 19.962 19.128 19.885 19.128 19.885C13.818 16.781 12.862 21.78 12.862 21.78C13.705 24.428 11.898 24.731 11.898 24.731C13.648 25.033 14.551 22.61 14.551 22.61C18.169 24.428 16.248 30.941 16.248 30.941C17.659 31.771 18.055 34.5 18.055 34.5C19.038 34.798 20.045 35.4 20.751 35.877C20.888 35.754 21.029 35.637 21.177 35.528C19.527 34.362 19.524 32.474 19.524 32.474C21.021 32.474 22.613 31.184 23.762 29.998L23.142 36.141C22.8629 36.0709 22.5802 36.0164 22.295 35.978C22.0284 36.1059 21.778 36.265 21.549 36.452L21.671 36.547C20.007 39.744 22.257 41.026 22.63 41.211L21.675 50.661L8.439 51.696L12.854 9.882L25.872 9.116L25.195 15.82ZM22.521 52.243L42.68 57.897L42.77 59.786L22.274 54.686L22.521 52.243ZM40.486 11.734L40.562 13.324L27.02 7.711L27.194 5.985L40.144 11.586L40.486 11.734ZM9.889 6.886L26.206 5.811L26.025 7.605L11.496 8.459L6.759 53.333L21.524 52.176L21.278 54.604L4.265 56.051L9.889 6.886Z" fill="white"/>
<path d="M32.062 36.6171C32.062 36.6171 34.184 37.0141 33.335 41.1031C33.335 41.1031 33.674 44.2901 35.535 43.9991C35.535 43.9991 36.043 39.4 38.416 35.877C38.416 35.877 37.454 36.8351 36.363 33.6581C36.198 33.7781 35.974 33.806 35.787 33.62C35.317 33.151 35.033 32.56 34.727 31.966C34.6836 31.8806 34.6659 31.7844 34.676 31.689C33.132 31.113 30.005 30.5351 29.562 35.0821C29.563 35.0821 30.154 38.2121 32.062 36.6171Z" fill="white"/>
<path d="M31.09 25.9951C31.236 28.0431 31.51 28.6651 31.869 27.8141C32.23 26.9701 31.09 25.9951 31.09 25.9951Z" fill="white"/>
<path d="M30.449 27.9279C30.449 27.9279 31.046 27.8399 30.875 27.0889C30.875 27.0889 30.449 27.1329 30.449 27.9279Z" fill="white"/>
<path d="M30.219 23.811C30.219 23.811 28.714 23.811 29.246 24.58C29.775 25.347 30.219 23.811 30.219 23.811Z" fill="white"/>
<path d="M37.74 42.468C37.74 42.468 38.2 41.53 38.185 40.084C38.186 40.084 36.722 41.756 37.74 42.468Z" fill="white"/>
<path d="M47.226 36.5898C47.226 36.5898 46.166 37.5568 46.36 38.4378C46.551 39.3218 47.481 38.2638 47.226 36.5898Z" fill="white"/>
<path d="M51.465 39.717C51.93 38.903 48.918 37.895 48.918 37.895C49.513 38.777 51.043 40.443 51.465 39.717Z" fill="white"/>
<path d="M48.096 39.891C48.803 38.681 45.956 39.26 45.956 39.26C45.956 39.26 47.821 40.369 48.096 39.891Z" fill="white"/>
<path d="M49.215 40.1431C49.215 40.1431 48.645 41.4181 46.527 41.9551C46.527 41.9551 46.974 42.9801 46.527 44.9131C46.527 44.9131 48.665 42.1851 49.897 46.1311C49.897 46.1311 50.954 46.7051 51.695 43.1321C51.695 43.1321 50.806 41.8451 50.51 40.0151C50.511 40.0141 50.217 42.3591 49.215 40.1431Z" fill="white"/>
<path d="M49.633 28.5099C49.768 28.3969 49.873 28.3559 49.873 28.3559C48.836 26.6789 49.215 29.0959 49.215 29.0959C49.282 28.9369 49.361 28.8149 49.442 28.7119C49.497 29.4279 49.325 30.4949 48.207 31.5089C48.206 31.5089 50.604 30.6049 49.633 28.5099Z" fill="white"/>
<path d="M31.332 15.955C31.855 14.729 30.211 13.333 30.211 13.333C30.422 16.28 30.813 17.18 31.332 15.955Z" fill="white"/>
<path d="M29.288 16.1161C29.288 16.1161 30.139 15.9901 29.898 14.9121C29.898 14.9121 29.288 14.9731 29.288 16.1161Z" fill="white"/>
<path d="M87.1924 30.2163H77.3486V36.8813H88.9014V41H72.2217V16.1172H88.8672V20.27H77.3486V26.2002H87.1924V30.2163ZM102.3 41C102.072 40.5557 101.907 40.0031 101.804 39.3423C100.608 40.6753 99.0527 41.3418 97.1387 41.3418C95.3271 41.3418 93.8232 40.8177 92.627 39.7695C91.4421 38.7214 90.8496 37.3997 90.8496 35.8047C90.8496 33.8451 91.5731 32.3411 93.02 31.293C94.4784 30.2448 96.5804 29.715 99.3262 29.7036H101.599V28.644C101.599 27.7896 101.377 27.106 100.933 26.5933C100.5 26.0806 99.8104 25.8242 98.8647 25.8242C98.033 25.8242 97.3779 26.0236 96.8994 26.4224C96.4323 26.8211 96.1987 27.368 96.1987 28.063H91.2598C91.2598 26.992 91.5902 26.0008 92.251 25.0894C92.9118 24.1779 93.846 23.4658 95.0537 22.9531C96.2614 22.429 97.6172 22.167 99.1211 22.167C101.4 22.167 103.206 22.7424 104.539 23.8931C105.883 25.0324 106.555 26.6388 106.555 28.7124V36.7275C106.567 38.4821 106.812 39.8094 107.29 40.7095V41H102.3ZM98.2153 37.5649C98.9445 37.5649 99.6167 37.4054 100.232 37.0864C100.847 36.756 101.303 36.3174 101.599 35.7705V32.5918H99.7534C97.2811 32.5918 95.9652 33.4463 95.8057 35.1553L95.7886 35.4458C95.7886 36.061 96.005 36.568 96.438 36.9668C96.8709 37.3656 97.4634 37.5649 98.2153 37.5649ZM120.74 27.1401C120.068 27.049 119.475 27.0034 118.962 27.0034C117.094 27.0034 115.869 27.6357 115.288 28.9004V41H110.349V22.5088H115.015L115.151 24.7134C116.143 23.0158 117.515 22.167 119.27 22.167C119.817 22.167 120.33 22.241 120.808 22.3892L120.74 27.1401ZM129.9 17.9629V22.5088H133.062V26.1318H129.9V35.3604C129.9 36.0439 130.031 36.5339 130.293 36.8301C130.555 37.1263 131.056 37.2744 131.797 37.2744C132.344 37.2744 132.828 37.2345 133.25 37.1548V40.8975C132.281 41.1937 131.284 41.3418 130.259 41.3418C126.795 41.3418 125.029 39.5929 124.961 36.0952V26.1318H122.261V22.5088H124.961V17.9629H129.9ZM140.632 24.5254C141.943 22.9531 143.589 22.167 145.571 22.167C149.582 22.167 151.615 24.4969 151.672 29.1567V41H146.733V29.2935C146.733 28.2339 146.506 27.4535 146.05 26.9521C145.594 26.4395 144.836 26.1831 143.777 26.1831C142.33 26.1831 141.282 26.7414 140.632 27.8579V41H135.693V14.75H140.632V24.5254ZM164.438 41V16.1172H172.095C174.282 16.1172 176.236 16.6128 177.957 17.604C179.688 18.5838 181.038 19.9852 182.007 21.8081C182.975 23.6196 183.459 25.6818 183.459 27.9946V29.1396C183.459 31.4525 182.981 33.509 182.024 35.3091C181.078 37.1092 179.74 38.5049 178.008 39.4961C176.276 40.4873 174.322 40.9886 172.146 41H164.438ZM169.565 20.27V36.8813H172.043C174.049 36.8813 175.581 36.2262 176.641 34.916C177.7 33.6058 178.241 31.7316 178.264 29.2935V27.9775C178.264 25.4482 177.74 23.5342 176.692 22.2354C175.644 20.9251 174.111 20.27 172.095 20.27H169.565ZM197.593 41C197.365 40.5557 197.2 40.0031 197.097 39.3423C195.901 40.6753 194.346 41.3418 192.432 41.3418C190.62 41.3418 189.116 40.8177 187.92 39.7695C186.735 38.7214 186.143 37.3997 186.143 35.8047C186.143 33.8451 186.866 32.3411 188.313 31.293C189.771 30.2448 191.873 29.715 194.619 29.7036H196.892V28.644C196.892 27.7896 196.67 27.106 196.226 26.5933C195.793 26.0806 195.103 25.8242 194.158 25.8242C193.326 25.8242 192.671 26.0236 192.192 26.4224C191.725 26.8211 191.492 27.368 191.492 28.063H186.553C186.553 26.992 186.883 26.0008 187.544 25.0894C188.205 24.1779 189.139 23.4658 190.347 22.9531C191.554 22.429 192.91 22.167 194.414 22.167C196.693 22.167 198.499 22.7424 199.832 23.8931C201.176 25.0324 201.848 26.6388 201.848 28.7124V36.7275C201.86 38.4821 202.104 39.8094 202.583 40.7095V41H197.593ZM193.508 37.5649C194.237 37.5649 194.91 37.4054 195.525 37.0864C196.14 36.756 196.596 36.3174 196.892 35.7705V32.5918H195.046C192.574 32.5918 191.258 33.4463 191.099 35.1553L191.082 35.4458C191.082 36.061 191.298 36.568 191.731 36.9668C192.164 37.3656 192.756 37.5649 193.508 37.5649ZM215.657 35.8901C215.657 35.2863 215.355 34.8135 214.751 34.4717C214.159 34.1185 213.201 33.8052 211.88 33.5317C207.482 32.6089 205.283 30.7404 205.283 27.9263C205.283 26.2856 205.961 24.9185 207.317 23.8247C208.684 22.7196 210.467 22.167 212.666 22.167C215.013 22.167 216.887 22.7196 218.289 23.8247C219.701 24.9299 220.408 26.3654 220.408 28.1313H215.469C215.469 27.425 215.241 26.8439 214.785 26.3882C214.329 25.9211 213.617 25.6875 212.649 25.6875C211.817 25.6875 211.174 25.8755 210.718 26.2515C210.262 26.6274 210.034 27.106 210.034 27.687C210.034 28.2339 210.291 28.6782 210.803 29.02C211.327 29.3504 212.205 29.641 213.435 29.8916C214.666 30.1309 215.702 30.4043 216.545 30.7119C219.154 31.6689 220.459 33.3267 220.459 35.6851C220.459 37.3713 219.736 38.7384 218.289 39.7866C216.842 40.8234 214.973 41.3418 212.683 41.3418C211.134 41.3418 209.755 41.0684 208.547 40.5215C207.351 39.9632 206.411 39.2056 205.728 38.2485C205.044 37.2801 204.702 36.2376 204.702 35.1211H209.385C209.43 35.9984 209.755 36.6706 210.359 37.1377C210.963 37.6048 211.772 37.8384 212.786 37.8384C213.731 37.8384 214.443 37.6618 214.922 37.3086C215.412 36.944 215.657 36.4712 215.657 35.8901ZM228.474 24.5254C229.784 22.9531 231.431 22.167 233.413 22.167C237.424 22.167 239.457 24.4969 239.514 29.1567V41H234.575V29.2935C234.575 28.2339 234.347 27.4535 233.892 26.9521C233.436 26.4395 232.678 26.1831 231.619 26.1831C230.172 26.1831 229.124 26.7414 228.474 27.8579V41H223.535V14.75H228.474V24.5254ZM259.902 31.9253C259.902 34.8875 259.27 37.2004 258.005 38.8638C256.741 40.5158 254.975 41.3418 252.708 41.3418C250.702 41.3418 249.102 40.5728 247.905 39.0347L247.683 41H243.24V14.75H248.179V24.1665C249.318 22.8335 250.816 22.167 252.673 22.167C254.929 22.167 256.695 22.9987 257.971 24.6621C259.259 26.3141 259.902 28.644 259.902 31.6519V31.9253ZM254.963 31.5664C254.963 29.6979 254.667 28.3364 254.075 27.4819C253.482 26.616 252.599 26.1831 251.426 26.1831C249.854 26.1831 248.771 26.8268 248.179 28.1143V35.4116C248.783 36.7104 249.876 37.3599 251.46 37.3599C253.055 37.3599 254.103 36.5737 254.604 35.0015C254.844 34.2495 254.963 33.1045 254.963 31.5664ZM262.192 31.5835C262.192 29.7492 262.546 28.1143 263.252 26.6787C263.958 25.2432 264.972 24.1323 266.294 23.3462C267.627 22.5601 269.171 22.167 270.925 22.167C273.42 22.167 275.454 22.9303 277.026 24.457C278.61 25.9837 279.493 28.0573 279.675 30.6777L279.709 31.9424C279.709 34.7793 278.918 37.0579 277.334 38.7783C275.75 40.4873 273.625 41.3418 270.959 41.3418C268.293 41.3418 266.163 40.4873 264.568 38.7783C262.984 37.0693 262.192 34.7451 262.192 31.8057V31.5835ZM267.131 31.9424C267.131 33.6969 267.462 35.0413 268.123 35.9756C268.783 36.8984 269.729 37.3599 270.959 37.3599C272.156 37.3599 273.09 36.9041 273.762 35.9927C274.434 35.0698 274.771 33.6001 274.771 31.5835C274.771 29.8631 274.434 28.5301 273.762 27.5845C273.09 26.6388 272.144 26.166 270.925 26.166C269.718 26.166 268.783 26.6388 268.123 27.5845C267.462 28.5187 267.131 29.9714 267.131 31.9424ZM293.467 41C293.239 40.5557 293.074 40.0031 292.971 39.3423C291.775 40.6753 290.22 41.3418 288.306 41.3418C286.494 41.3418 284.99 40.8177 283.794 39.7695C282.609 38.7214 282.017 37.3997 282.017 35.8047C282.017 33.8451 282.74 32.3411 284.187 31.293C285.645 30.2448 287.747 29.715 290.493 29.7036H292.766V28.644C292.766 27.7896 292.544 27.106 292.1 26.5933C291.667 26.0806 290.977 25.8242 290.032 25.8242C289.2 25.8242 288.545 26.0236 288.066 26.4224C287.599 26.8211 287.366 27.368 287.366 28.063H282.427C282.427 26.992 282.757 26.0008 283.418 25.0894C284.079 24.1779 285.013 23.4658 286.221 22.9531C287.428 22.429 288.784 22.167 290.288 22.167C292.567 22.167 294.373 22.7424 295.706 23.8931C297.05 25.0324 297.722 26.6388 297.722 28.7124V36.7275C297.734 38.4821 297.979 39.8094 298.457 40.7095V41H293.467ZM289.382 37.5649C290.111 37.5649 290.784 37.4054 291.399 37.0864C292.014 36.756 292.47 36.3174 292.766 35.7705V32.5918H290.92C288.448 32.5918 287.132 33.4463 286.973 35.1553L286.956 35.4458C286.956 36.061 287.172 36.568 287.605 36.9668C288.038 37.3656 288.63 37.5649 289.382 37.5649ZM311.907 27.1401C311.235 27.049 310.642 27.0034 310.129 27.0034C308.261 27.0034 307.036 27.6357 306.455 28.9004V41H301.516V22.5088H306.182L306.318 24.7134C307.31 23.0158 308.682 22.167 310.437 22.167C310.984 22.167 311.497 22.241 311.975 22.3892L311.907 27.1401ZM313.188 31.6177C313.188 28.7352 313.832 26.4395 315.12 24.7305C316.418 23.0215 318.19 22.167 320.435 22.167C322.235 22.167 323.722 22.8392 324.895 24.1836V14.75H329.851V41H325.391L325.151 39.0347C323.921 40.5728 322.337 41.3418 320.4 41.3418C318.224 41.3418 316.475 40.4873 315.154 38.7783C313.844 37.0579 313.188 34.6711 313.188 31.6177ZM318.127 31.9766C318.127 33.7083 318.429 35.0356 319.033 35.9585C319.637 36.8813 320.514 37.3428 321.665 37.3428C323.192 37.3428 324.268 36.6991 324.895 35.4116V28.1143C324.28 26.8268 323.215 26.1831 321.699 26.1831C319.318 26.1831 318.127 28.1143 318.127 31.9766Z" fill="white"/>
</svg>
